www/assets/icons/format_align_left.svg

<svg xmlns="http://www.w3.org/2000/svg" width="24" height="24" viewBox="0 0 24 24" fill='currentColor'><path d="M15 15H3v2h12zm0-8H3v2h12zM3 13h18v-2H3zm0 8h18v-2H3zM3 3v2h18V3z"/></svg>

<svg width="24" height="24" viewBox="0 0 24 24" xmlns="http://www.w3.org/2000/svg" fill='currentColor'><path d="M15 15H3V17H15V15ZM15 7H3V9H15V7ZM3 13H21V11H3V13ZM3 21H21V19H3V21ZM3 3V5H21V3H3Z"/></svg>
